packages/foundations/assets/icons/functional/images/file/download_14.svg

<svg width="14" height="14" viewBox="0 0 14 14" fill="none" xmlns="http://www.w3.org/2000/svg">
<g clip-path="url(#clip0_185_925)">
<path fill-rule="evenodd" clip-rule="evenodd" d="M11.2 8.39999C11.5718 8.39999 11.9 8.70624 11.9 9.09999V10.5C11.9 11.6593 10.9593 12.6 9.79998 12.6H4.19998C3.04064 12.6 2.09998 11.6593 2.09998 10.5V9.09999C2.09998 8.70624 2.42814 8.39999 2.79998 8.39999C3.19373 8.39999 3.49998 8.70624 3.49998 9.09999V10.5C3.49998 10.8718 3.80623 11.2 4.19998 11.2H9.79998C10.1937 11.2 10.5 10.8718 10.5 10.5V9.09999C10.5 8.70624 10.8062 8.39999 11.2 8.39999ZM6.99998 1.39999C7.39373 1.39999 7.69998 1.72815 7.69998 2.09999V6.71565L8.59682 5.81874C8.74998 5.66565 8.88123 5.59999 9.09998 5.59999C9.49373 5.59999 9.79998 5.92815 9.79998 6.29999C9.79998 6.43124 9.75623 6.60624 9.64682 6.73749L7.50314 8.90315C7.34998 9.03433 7.19682 9.09999 7.02182 9.09999C6.84682 9.09999 6.67182 9.03433 6.51873 8.90315L4.39682 6.80315C4.26564 6.67183 4.19998 6.49683 4.19998 6.32183C4.19998 5.90624 4.57182 5.59999 4.92182 5.59999C5.09682 5.59999 5.27182 5.66565 5.40314 5.81874L6.29998 6.71565V2.09999C6.29998 1.72815 6.60623 1.39999 6.99998 1.39999Z" fill="#1A1C1F"/>
</g>
<defs>
<clipPath id="clip0_185_925">
<rect width="14" height="14" fill="white"/>
</clipPath>
</defs>
</svg>

<svg xmlns="http://www.w3.org/2000/svg" width="14" height="14" fill="none"><g clip-path="url(#a)"><path fill="#1A1C1F" fill-rule="evenodd" d="M11.2 8.4c.372 0 .7.306.7.7v1.4a2.1 2.1 0 0 1-2.1 2.1H4.2a2.1 2.1 0 0 1-2.1-2.1V9.1c0-.394.328-.7.7-.7.394 0 .7.306.7.7v1.4c0 .372.306.7.7.7h5.6c.394 0 .7-.328.7-.7V9.1c0-.394.306-.7.7-.7M7 1.4c.394 0 .7.328.7.7v4.616l.897-.897c.153-.153.284-.219.503-.219.394 0 .7.328.7.7a.7.7 0 0 1-.153.437L7.503 8.903a.72.72 0 0 1-.481.197.77.77 0 0 1-.503-.197l-2.122-2.1a.68.68 0 0 1-.197-.481c0-.416.372-.722.722-.722a.62.62 0 0 1 .481.219l.897.897V2.1c0-.372.306-.7.7-.7" clip-rule="evenodd"/></g><defs><clipPath id="a"><path fill="#fff" d="M0 0h14v14H0z"/></clipPath></defs></svg>
